svg/cloud_minus.svg

<svg xmlns="http://www.w3.org/2000/svg" viewBox="0 0 24 24"><path d="M13 19c0 .34.04.67.09 1H6.5c-1.5 0-2.81-.5-3.89-1.57C1.54 17.38 1 16.09 1 14.58q0-1.95 1.17-3.48C3.34 9.57 4 9.43 5.25 9.15c.42-1.53 1.25-2.77 2.5-3.72S10.42 4 12 4c1.95 0 3.6.68 4.96 2.04S19 9.05 19 11c1.15.13 2.1.63 2.86 1.5.51.57.84 1.21 1 1.92A5.9 5.9 0 0 0 19 13c-3.31 0-6 2.69-6 6m2-1v2h8v-2z"/></svg>

<svg xmlns="http://www.w3.org/2000/svg" id="mdi-cloud-minus" viewBox="0 0 24 24"><path d="M13 19C13 19.34 13.04 19.67 13.09 20H6.5C5 20 3.69 19.5 2.61 18.43C1.54 17.38 1 16.09 1 14.58C1 13.28 1.39 12.12 2.17 11.1S4 9.43 5.25 9.15C5.67 7.62 6.5 6.38 7.75 5.43S10.42 4 12 4C13.95 4 15.6 4.68 16.96 6.04C18.32 7.4 19 9.05 19 11C20.15 11.13 21.1 11.63 21.86 12.5C22.37 13.07 22.7 13.71 22.86 14.42C21.82 13.54 20.5 13 19 13C15.69 13 13 15.69 13 19M15 18V20H23V18H15Z" /></svg>
